X:309
T:True Joak. EHo.309
A:England; East Yorkshire
M:6/8
L:1/8
Q:3/8=100
B:Edward Holmes MS, c1846, Beverley, Yorkshire.
N:NB1 = Un-matched repeat.
O:
Z:Village Music Project 2018, Jake Wade. Beverley, East Yorks
K:D
d2e fga | c2d efg | dcB AGF | GEA FDA |
d2e fga | c2d edc | dcB EA^G | A3-A3 ||
"NB1" F2G AFd | AFB AFD | G2A BGB | ecd cBA |
def fed | efg gab | agf eAc | d3-d3 :|

